X: 02089
T: NEWT + KAY'S NELSON REEL
C: Bob McQuillen Jan'74
B: Bob's Note Book 1&2 #89
R: reel
Z: 2019 John Chambers <jc:trillian.mit.edu>
M: C
L: 1/8
K: D
A,2 \
| DEFG ABcd | edce d2A2 | BGBd AFBA | GFED E2A2 |
| DEFG ABcd | edce d2A2 | BGBd cBAG | FEDC D2 :|
|: EF \
| GFGB AGFE | FDFG A2F2 | BGBd efed | cdBc AGFE |
| FDFG ABcd | edce d2A2 | BGBg f2d2 | cdec d2 :|
%%begintext align
%% For Kay Gilbert +
%% Newt Tolman,
%% who have given so
%% much to our music
%%endtext

%%sep 1 1 500

%%sep 1 1 500

